assets/img/layer1.svg

<svg height="100" viewBox="0 0 900 100" width="900" xmlns="http://www.w3.org/2000/svg"><path d="m0 35 11.5 2c11.5 2 34.5 6 57.5 11.2 23 5.1 46 11.5 69.2 14.6 23.1 3.2 46.5 3.2 69.6.2 23.2-3 46.2-9 69.2-11.8 23-2.9 46-2.5 69-1.2s46 3.7 69.2 6.7c23.1 3 46.5 6.6 69.6 4.8 23.2-1.8 46.2-9.2 69.2-12s46-1.2 69 .5 46 3.3 69.2 5.5c23.1 2.2 46.5 4.8 69.6 2.3 23.2-2.5 46.2-10.1 69.2-15.6s46-8.9 57.5-10.5l11.5-1.7v71h-11.5c-11.5 0-34.5 0-57.5 0s-46 0-69.2 0c-23.1 0-46.5 0-69.6 0-23.2 0-46.2 0-69.2 0s-46 0-69 0-46 0-69.2 0c-23.1 0-46.5 0-69.6 0-23.2 0-46.2 0-69.2 0s-46 0-69 0-46 0-69.2 0c-23.1 0-46.5 0-69.6 0-23.2 0-46.2 0-69.2 0s-46 0-57.5 0h-11.5z" fill="#f1f1f1" stroke-linecap="round"/></svg>

<svg id="visual" viewBox="0 0 900 100" width="900" height="100" xmlns="http://www.w3.org/2000/svg" xmlns:xlink="http://www.w3.org/1999/xlink" version="1.1"><path d="M0 35L11.5 37C23 39 46 43 69 48.2C92 53.3 115 59.7 138.2 62.8C161.3 66 184.7 66 207.8 63C231 60 254 54 277 51.2C300 48.3 323 48.7 346 50C369 51.3 392 53.7 415.2 56.7C438.3 59.7 461.7 63.3 484.8 61.5C508 59.7 531 52.3 554 49.5C577 46.7 600 48.3 623 50C646 51.7 669 53.3 692.2 55.5C715.3 57.7 738.7 60.3 761.8 57.8C785 55.3 808 47.7 831 42.2C854 36.7 877 33.3 888.5 31.7L900 30L900 101L888.5 101C877 101 854 101 831 101C808 101 785 101 761.8 101C738.7 101 715.3 101 692.2 101C669 101 646 101 623 101C600 101 577 101 554 101C531 101 508 101 484.8 101C461.7 101 438.3 101 415.2 101C392 101 369 101 346 101C323 101 300 101 277 101C254 101 231 101 207.8 101C184.7 101 161.3 101 138.2 101C115 101 92 101 69 101C46 101 23 101 11.5 101L0 101Z" fill="#f1f1f1" stroke-linecap="round" stroke-linejoin="miter"></path></svg>
